X: 1
T: Angus MacKinnon's Hornpipe
T: 8x32R 3C (John Bowie Dickson 1978)
T: 1C, cross up, cast 2p; dbl tri; crnr/prtnr; reels
P: Angus MacKinnon's Hornpipe [2x]
C: Angus MacKinnon
C: from John Chambers
R: hornpipe, reel
M: C
L: 1/8
K: D
AG | "D"F2FA dAFD |"G"G2GB "(Em)"dBGB|"A7"A2Ac ecAc | "D"dcde dBAG | "D"F2FA dAFD |
"G"G2GB "(Em)"dBGB| "A7"A2Ac eAce |"D"d2f2 d2 ||dc|"G"BGDG BdcB |"D"ADFA d2d2 | "A7"e2 Ac ecAc|
"D"dcde d2 dc |"G"BGDG BdcB |"D"ADFA d2d2| "A7"e2Ac eAce |"D"d2f2 d2 |]